svg/dimmer.svg

<svg xmlns="http://www.w3.org/2000/svg" width="24" height="24" viewBox="0 0 24 24"><path d="M15 14H9v-2h2V5h2v7h2zm-4 5h2v-4h-2zm8-16v18a2 2 0 0 1-2 2H7a2 2 0 0 1-2-2V3a2 2 0 0 1 2-2h10a2 2 0 0 1 2 2zm-2 0H7v18h10z" fill-rule="evenodd"/><path fill="none" d="M0 0h24v24H0z"/></svg>

<svg xmlns="http://www.w3.org/2000/svg" width="24" height="24" viewBox="0 0 24 24"><path d="M15,14H9V12h2V5h2v7h2Zm-4,5h2V15H11ZM19,3V21a2,2,0,0,1-2,2H7a2,2,0,0,1-2-2V3A2,2,0,0,1,7,1H17A2,2,0,0,1,19,3ZM17,3H7V21H17Z" fill-rule="evenodd"/><rect width="24" height="24" fill="none"/></svg>
